assets/Menorah/Flat/menorah_flat.svg

<svg width="32" height="32" viewBox="0 0 32 32" fill="none" xmlns="http://www.w3.org/2000/svg">
<path d="M2 6C2 3.79086 3.79086 2 6 2H26C28.2091 2 30 3.79086 30 6V26C30 28.2091 28.2091 30 26 30H6C3.79086 30 2 28.2091 2 26V6Z" fill="#8D65C5"/>
<path d="M6.12671 4.73627L6.74672 5.84108C7.07704 6.4297 6.65164 7.15625 5.97666 7.15625C5.31634 7.15625 4.88964 6.45799 5.19088 5.87038L5.76885 4.74301C5.84276 4.59885 6.04742 4.595 6.12671 4.73627Z" fill="white"/>
<path d="M9.27797 5.84108L8.65796 4.73627C8.57867 4.595 8.37401 4.59885 8.3001 4.74301L7.72213 5.87038C7.42089 6.45799 7.84759 7.15625 8.50791 7.15625C9.18289 7.15625 9.60829 6.4297 9.27797 5.84108Z" fill="white"/>
<path d="M11.158 4.73627L11.778 5.84108C12.1083 6.4297 11.6829 7.15625 11.0079 7.15625C10.3476 7.15625 9.92089 6.45799 10.2221 5.87038L10.8001 4.74301C10.874 4.59885 11.0787 4.595 11.158 4.73627Z" fill="white"/>
<path d="M19.2541 5.84108L18.6341 4.73627C18.5548 4.595 18.3501 4.59885 18.2762 4.74301L17.6983 5.87038C17.397 6.45799 17.8237 7.15625 18.484 7.15625C19.159 7.15625 19.5844 6.4297 19.2541 5.84108Z" fill="white"/>
<path d="M26.7619 5.84108L26.1419 4.73627C26.0626 4.595 25.858 4.59885 25.7841 4.74301L25.2061 5.87038C24.9048 6.45799 25.3315 7.15625 25.9919 7.15625C26.6668 7.15625 27.0922 6.4297 26.7619 5.84108Z" fill="white"/>
<path d="M24.2619 5.84108L23.6419 4.73627C23.5626 4.595 23.358 4.59885 23.2841 4.74301L22.7061 5.87038C22.4048 6.45799 22.8315 7.15625 23.4919 7.15625C24.1668 7.15625 24.5922 6.4297 24.2619 5.84108Z" fill="white"/>
<path d="M16.1341 4.73627L16.7541 5.84108C17.0844 6.4297 16.659 7.15625 15.984 7.15625C15.3237 7.15625 14.897 6.45799 15.1983 5.87038L15.7762 4.74301C15.8501 4.59885 16.0548 4.595 16.1341 4.73627Z" fill="white"/>
<path d="M21.1107 4.73627L21.7307 5.84108C22.061 6.4297 21.6356 7.15625 20.9606 7.15625C20.3003 7.15625 19.8736 6.45799 20.1748 5.87038L20.7528 4.74301C20.8267 4.59885 21.0314 4.595 21.1107 4.73627Z" fill="white"/>
<path d="M14.2229 5.84108L13.6028 4.73627C13.5236 4.595 13.3189 4.59885 13.245 4.74301L12.667 5.87038C12.3658 6.45799 12.7925 7.15625 13.4528 7.15625C14.1278 7.15625 14.5532 6.4297 14.2229 5.84108Z" fill="white"/>
<path d="M18.75 27C18.8881 27 19.0011 26.8879 18.9896 26.7503C18.9308 26.0461 18.6247 25.3821 18.1213 24.8787C17.7856 24.543 17.3786 24.2951 16.9358 24.1497C16.8275 24.1141 16.75 24.0156 16.75 23.9016V20.411C16.75 20.2796 16.8525 20.1709 16.9834 20.1591C22.5027 19.6622 26.8281 15.0237 26.8281 9.375C26.8281 8.96079 26.4923 8.625 26.0781 8.625C25.6639 8.625 25.3281 8.96079 25.3281 9.375C25.3281 14.1821 21.6919 18.1399 17.02 18.648C16.875 18.6638 16.75 18.5486 16.75 18.4027V17.8199C16.75 17.6905 16.8492 17.5828 16.9777 17.5677C21.0732 17.0841 24.25 13.6005 24.25 9.375C24.25 8.96079 23.9142 8.625 23.5 8.625C23.0858 8.625 22.75 8.96079 22.75 9.375C22.75 12.7538 20.2675 15.5528 17.0269 16.0474C16.8797 16.0699 16.75 15.9536 16.75 15.8046V15.2961C16.75 15.1705 16.8435 15.065 16.9673 15.044C19.6823 14.5841 21.75 12.221 21.75 9.375C21.75 8.96079 21.4142 8.625 21 8.625C20.5858 8.625 20.25 8.96079 20.25 9.375C20.25 11.3627 18.8854 13.0318 17.0419 13.4964C16.891 13.5344 16.75 13.4162 16.75 13.2606V12.7359C16.75 12.6199 16.8301 12.5202 16.9411 12.4867C18.2771 12.0831 19.25 10.8427 19.25 9.375C19.25 8.96079 18.9142 8.625 18.5 8.625C18.0858 8.625 17.75 8.96079 17.75 9.375C17.75 9.93161 17.4901 10.4275 17.0851 10.748C16.9411 10.862 16.75 10.7447 16.75 10.5611V9.375C16.75 8.96079 16.4142 8.625 16 8.625C15.5858 8.625 15.25 8.96079 15.25 9.375V10.5611C15.25 10.7447 15.0589 10.862 14.9149 10.748C14.5099 10.4275 14.25 9.93161 14.25 9.375C14.25 8.96079 13.9142 8.625 13.5 8.625C13.0858 8.625 12.75 8.96079 12.75 9.375C12.75 10.8427 13.7229 12.0831 15.0589 12.4867C15.1699 12.5202 15.25 12.6199 15.25 12.7359V13.2606C15.25 13.4162 15.109 13.5344 14.9581 13.4964C13.1146 13.0318 11.75 11.3627 11.75 9.375C11.75 8.96079 11.4142 8.625 11 8.625C10.5858 8.625 10.25 8.96079 10.25 9.375C10.25 12.221 12.3177 14.5841 15.0327 15.044C15.1565 15.065 15.25 15.1705 15.25 15.2961V15.8046C15.25 15.9536 15.1203 16.0699 14.9731 16.0474C11.7325 15.5528 9.25 12.7538 9.25 9.375C9.25 8.96079 8.91421 8.625 8.5 8.625C8.08579 8.625 7.75 8.96079 7.75 9.375C7.75 13.6005 10.9268 17.0841 15.0223 17.5677C15.1508 17.5828 15.25 17.6905 15.25 17.8199V18.4027C15.25 18.5486 15.125 18.6638 14.98 18.648C10.3081 18.1399 6.67188 14.1821 6.67188 9.375C6.67188 8.96079 6.33609 8.625 5.92188 8.625C5.50766 8.625 5.17188 8.96079 5.17188 9.375C5.17188 15.0237 9.49725 19.6622 15.0166 20.1591C15.1475 20.1709 15.25 20.2796 15.25 20.411V23.9016C15.25 24.0156 15.1725 24.1141 15.0642 24.1497C14.6214 24.2951 14.2144 24.543 13.8787 24.8787C13.3752 25.3821 13.0692 26.0461 13.0104 26.7503C12.9989 26.8879 13.1119 27 13.25 27H18.75Z" fill="white"/>
</svg>

<svg xmlns="http://www.w3.org/2000/svg" width="32" height="32" fill="none"><path fill="#8D65C5" d="M2 6a4 4 0 0 1 4-4h20a4 4 0 0 1 4 4v20a4 4 0 0 1-4 4H6a4 4 0 0 1-4-4V6Z"/><path fill="#fff" d="m6.127 4.736.62 1.105a.883.883 0 1 1-1.556.03l.578-1.128a.203.203 0 0 1 .358-.007ZM9.278 5.841l-.62-1.105a.203.203 0 0 0-.358.007L7.722 5.87a.883.883 0 1 0 1.556-.029ZM11.158 4.736l.62 1.105a.883.883 0 1 1-1.556.03l.578-1.128a.203.203 0 0 1 .358-.007ZM19.254 5.841l-.62-1.105a.203.203 0 0 0-.358.007l-.578 1.127a.883.883 0 1 0 1.556-.029ZM26.762 5.841l-.62-1.105a.203.203 0 0 0-.358.007l-.578 1.127a.883.883 0 1 0 1.556-.029ZM24.262 5.841l-.62-1.105a.203.203 0 0 0-.358.007l-.578 1.127a.883.883 0 1 0 1.556-.029ZM16.134 4.736l.62 1.105a.883.883 0 1 1-1.556.03l.578-1.128a.203.203 0 0 1 .358-.007ZM21.11 4.736l.62 1.105a.883.883 0 1 1-1.555.03l.578-1.128a.203.203 0 0 1 .358-.007ZM14.223 5.841l-.62-1.105a.203.203 0 0 0-.358.007l-.578 1.127a.883.883 0 1 0 1.556-.029ZM18.75 27a.235.235 0 0 0 .24-.25 3 3 0 0 0-2.054-2.6.265.265 0 0 1-.186-.248V20.41c0-.131.102-.24.233-.252 5.52-.497 9.845-5.135 9.845-10.784a.75.75 0 0 0-1.5 0c0 4.807-3.636 8.765-8.308 9.273a.245.245 0 0 1-.27-.245v-.583c0-.13.1-.237.228-.252a8.251 8.251 0 0 0 7.272-8.193.75.75 0 0 0-1.5 0 6.752 6.752 0 0 1-5.723 6.672.242.242 0 0 1-.277-.242v-.509c0-.125.093-.231.217-.252a5.752 5.752 0 0 0 4.783-5.669.75.75 0 0 0-1.5 0 4.252 4.252 0 0 1-3.208 4.121.237.237 0 0 1-.292-.235v-.525c0-.116.08-.216.191-.25a3.252 3.252 0 0 0 2.309-3.111.75.75 0 0 0-1.5 0c0 .557-.26 1.053-.665 1.373-.144.114-.335-.003-.335-.187V9.375a.75.75 0 0 0-1.5 0v1.186c0 .184-.191.301-.335.187a1.747 1.747 0 0 1-.665-1.373.75.75 0 0 0-1.5 0c0 1.468.973 2.708 2.309 3.112a.264.264 0 0 1 .191.249v.525a.237.237 0 0 1-.292.235 4.252 4.252 0 0 1-3.208-4.121.75.75 0 0 0-1.5 0 5.752 5.752 0 0 0 4.783 5.669.258.258 0 0 1 .217.252v.509c0 .149-.13.265-.277.242A6.752 6.752 0 0 1 9.25 9.375a.75.75 0 0 0-1.5 0 8.251 8.251 0 0 0 7.272 8.193.256.256 0 0 1 .228.252v.583a.245.245 0 0 1-.27.245c-4.672-.508-8.308-4.466-8.308-9.273a.75.75 0 0 0-1.5 0c0 5.649 4.325 10.287 9.845 10.784.13.012.233.12.233.252v3.49a.265.265 0 0 1-.186.249 3 3 0 0 0-2.054 2.6.235.235 0 0 0 .24.25h5.5Z"/></svg>
